X:10
T:Battering Ram, The
M:6/8
L:1/8
Q:120
S:THSP
R:jig
K:Dmix
"G"dBG BAG | dBG G2B | dBG AGE | "D"GFD D2B |
"G"dBG BAG | ~B3 BAG | "C"AGA ~B | "D"GED D2B :|:
"G"deg aga | "C"bge edB | "G"deg aga | "C"bge e2a |
"G"bag age | "C"ged ege | "D"dAG AGE
|1 GED D2B :|2 GED d2c ||:
B2G A2G | "G"BGE D2A| BAG AGE | "D"GED D2d |
"G"B2G A2G | ~B3 BAG | "C"AGA ~B3 | "D"GED D3 :||
